X:1
T:Title
%%score { ( 1 3 ) | ( 2 4 ) }
L:1/8
M:6/8
K:Eb
V:1 treble nm="Grand Piano"
V:3 treble 
V:2 bass 
V:4 bass 
V:1
 z3 z[Q:1/4=84] E>F- | F/GGG/- G/AGA/- | A/B-<BB/- B/ z/ z z/ G,/- | %3
 G,/EEE/- E/[B,G]-<[B,G][A,DF]/- | [A,DF]/E/- E2- E3/2 z/ z/ F/- | F/G-<GG/- G/AGA/- | %6
 A/BBB/- B/E-<EE/- | E/EDE/- E/[EG]-<[EG][DF]/- | [DF]/[B,E]/- [B,E]2- [B,E]3/2[EG][GB]/- | %9
 [GB]/[Ge]-<[Ge][Ge]/- [Ge]/[Ge][Gd]c/- |[M:13/16] c/dcdB3/2FG/- | %11
[M:3/4] G<A- A/[DA][B,DG]/- [B,DG]>[B,DF]- | [B,DF]/B,G,/- G,2- G,/[B,DG][A,DF]/- | %13
 [A,DF]/[B,E]E/- E/EE/- E/FG/- |[M:7/8] G/BE[Cc]/- [Cc]2- [Cc]/[CE]E/- | %15
[M:3/4] E/EE/- E/E[B,G]/- [B,G]>[A,DF]- |[M:2/4] [A,DF]<[G,B,E]- [G,B,E]2- | [G,B,E]2 z2 |] %18
V:2
 z3 z [E,G,]>[E,A,E]- | [E,A,E]/[E,B,E][E,B,E][E,B,E]/- [E,B,E]/[F,B,D][=E,B,_D][F,B,=D]/- | %2
 [F,B,D]/[G,B,E]-<[G,B,E][G,B,E]/- [G,B,E]/C-<C z/ | %3
 z/ [C,G,B,][B,,G,B,][B,,G,B,]/- [B,,G,B,]/ z/ z/ DB,,/- | %4
 B,,/[E,G,B,]/- [E,G,B,]2- [E,G,B,]3/2[E,G,][E,A,]/- | %5
 [E,A,]/[E,B,E]-<[E,B,E][E,B,E]/- [E,B,E]/[F,B,D][=E,B,_D][F,B,=D]/- | %6
 [F,B,D]/EE[E,G,E]/- [E,G,E]/[C,G,]-<[C,G,][=B,,_G,A,]/- | %7
 [B,,G,A,]/[_B,,=G,B,][B,,F,B,][B,,G,B,]/- [B,,G,B,]/[B,,B,]-<[B,,B,][B,,A,]/- | %8
 [B,,A,]/[E,G,]/- [E,G,]2- [E,G,]3/2[E,B,][E,E]/- | %9
 [E,E]/[E,B,]-<[E,B,][E,B,]/- [E,B,]/[E,B,][E,B,][K:treble][B,EG]/- | %10
[M:13/16] [B,EG]/[B,A]-[B,EA][B,DA][B,DA]3/2[K:bass][A,B,][G,B,]/- | %11
[M:3/4] [G,B,]<[F,B,D]- [F,B,D]/[B,,F,]B,,/- B,,>A,- | A,/G,E,/- E,2- E,/B,,B,,/- | %13
 B,,>B,- B,/[E,G,B,]B,/- B,/B,[E,B,E]/- | %14
[M:7/8] [E,B,E]/[E,A,D][E,G,D][A,,A,]/- [A,,A,]2- [A,,A,]/ z/ z/ C/- | %15
[M:3/4] C/B,B,/- B,<.B, z/ DB,,/- |[M:2/4] B,,<E,- E,2- | E,2 z2 |] %18
V:3
 x6 | x6 | z3 z/ E/- E2- | E3 z/ .E3/2 z | z3 z z/ E3/2- | E3 z3 | x6 | x6 | x6 | x6 | %10
[M:13/16] x13/2 |[M:3/4] x6 | z/ [EB]3/2- [EB]2- [EB]/ z/ z | x6 |[M:7/8] x7 | %15
[M:3/4] z2 z z/ E/- E/ z/ z |[M:2/4] x4 | x4 |] %18
V:4
 x6 | x6 | z3 z/ C,/- C,2- | C,3 z/ B,,-<B,, z/ | x6 | x6 | z/ [G,B,]-<[G,B,] z/ z3 | x6 | x6 | %9
 x11/2[K:treble] x/ |[M:13/16] z/ F z/ z/ z/ z/ z/ z[K:bass] D3/2- |[M:3/4] D2 z2 z2 | x6 | %13
 z/ [E,G,]3/2- [E,G,]/ z/ z/ [E,G,]/- [E,G,]3/2 z/ |[M:7/8] z z z z z z/ [=A,,_G,]3/2- | %15
[M:3/4] [A,,G,]<[B,,=G,]- [B,,G,]>B,,- B,,3/2 z/ |[M:2/4] x4 | x4 |] %18

